X: 17705
T: Holywell
R: hornpipe
M: 4/4
K: Gmajor
|:Bc|d3g edcB|d3g edcB|DGBG DGBG|DGBd cBAG|
d3g edcB|d2gg edcB|gfgd ecAF|FGGF GA:|
|:Bc|d2de dBGB|cdef e2AB|c2cB cBAG|Bdef g3g|
dBdg eceg|fgaf g2 (3def|gfgd ecAF|GAAB AG:|

